X: 36
T: Merry Scotchman Breakdown
C: by Andy De Jarlis
%D:1957
R: reel
B: PC2 p.133
S: Fiddle Hell Online 2021-10-13 Portland Collection Jam handout
Z: 2022 John Chambers <jc:trillian.mit.edu>
M: C|
L: 1/8
K: Amix
%%continueall
"^A"|: fg |: "A"a2a2 efed | cAcd ecef |[1,3 "G"g2G2 GAGF | GAB=c defg :|[2,4 "G"gfge dBGB | "A"A2A>A A2 :|
"^B"|: A2 |: "A"EA- AA ABcd | efec [e2A2] [1,3 cA | "G"G2BG DGAG | =cGBG ABAG :[2,4 ef | "G"gfge dBGB | "A"A2A>A A2 :|


